icons/cloudy-sun.svg

<svg width="24" height="24" viewBox="0 0 24 24" fill="none" xmlns="http://www.w3.org/2000/svg">
<path d="M8.854 14.308C8.854 12.985 9.239 11.691 9.962 10.59C10.6791 9.49422 11.706 8.63651 12.912 8.12604C14.1105 7.61989 15.4338 7.4871 16.709 7.74504C17.9887 8.00551 19.161 8.64324 20.075 9.57604C20.9973 10.5176 21.6228 11.7092 21.874 13.003C22.1275 14.3007 21.9975 15.6441 21.5 16.869C21.0065 18.0867 20.1643 19.1315 19.079 19.872C18.0025 20.6061 16.73 20.9992 15.427 21H7.694C7.07556 20.9993 6.46495 20.8617 5.906 20.597C5.34443 20.3309 4.84784 19.9453 4.451 19.467C4.05111 18.9851 3.75983 18.4227 3.597 17.818C3.43391 17.2122 3.40209 16.5785 3.50367 15.9594C3.60525 15.3403 3.83788 14.75 4.186 14.228C4.534 13.708 4.99 13.272 5.52 12.951C6.04809 12.629 6.64105 12.4281 7.25615 12.363C7.87124 12.2978 8.49313 12.3699 9.077 12.574" stroke="white" stroke-width="2" stroke-linecap="round" stroke-linejoin="round"/>
<path d="M5.34 13.0631C4.90353 12.5476 4.58204 11.9448 4.397 11.2951C4.21162 10.6436 4.16603 9.96025 4.26323 9.28986C4.36043 8.61947 4.59821 7.9772 4.961 7.40514C5.32201 6.83816 5.80086 6.35556 6.365 5.99014C6.92465 5.62626 7.55736 5.38965 8.21845 5.29704C8.87954 5.20442 9.5529 5.25805 10.191 5.45414C10.8311 5.65102 11.4207 5.98473 11.919 6.43214C12.419 6.88014 12.819 7.43214 13.091 8.05214" stroke="white" stroke-width="2" stroke-linecap="round" stroke-linejoin="round"/>
<path d="M11.514 6.10883L12.844 4.17383" stroke="white" stroke-width="2" stroke-linecap="round" stroke-linejoin="round"/>
<path d="M8.048 5.326L7.645 3" stroke="white" stroke-width="2" stroke-linecap="round" stroke-linejoin="round"/>
<path d="M5.054 7.26809L3.154 5.91309" stroke="white" stroke-width="2" stroke-linecap="round" stroke-linejoin="round"/>
<path d="M4.285 10.7959L2 11.2059" stroke="white" stroke-width="2" stroke-linecap="round" stroke-linejoin="round"/>
</svg>

<svg
  width="24"
  height="24"
  viewBox="0 0 24 24"
  xmlns="http://www.w3.org/2000/svg"
  fill="none"
  stroke="currentColor"
  stroke-width="2"
  stroke-linecap="round"
  stroke-linejoin="round"
>
  <path d="M8.854 14.308c0-1.323.385-2.617 1.108-3.718a6.6 6.6 0 0 1 2.95-2.464 6.465 6.465 0 0 1 3.797-.381c1.28.26 2.452.898 3.366 1.831a6.73 6.73 0 0 1 1.799 3.427 6.806 6.806 0 0 1-.374 3.866 6.667 6.667 0 0 1-2.421 3.003A6.49 6.49 0 0 1 15.427 21H7.694a4.189 4.189 0 0 1-1.788-.403 4.262 4.262 0 0 1-1.455-1.13 4.356 4.356 0 0 1-.854-1.649 4.406 4.406 0 0 1 .589-3.59c.348-.52.804-.956 1.334-1.277a4.18 4.18 0 0 1 3.557-.377" />
  <path d="M5.34 13.063a4.75 4.75 0 0 1-.943-1.768 4.807 4.807 0 0 1 .564-3.89c.361-.567.84-1.05 1.404-1.415a4.561 4.561 0 0 1 3.826-.536c.64.197 1.23.53 1.728.978.5.448.9 1 1.172 1.62" />
  <path d="M11.514 6.109l1.33-1.935" />
  <path d="M8.048 5.326L7.645 3" />
  <path d="M5.054 7.268l-1.9-1.355" />
  <path d="M4.285 10.796L2 11.206" />
</svg>
